X: 27
M:4/4
L:1/8
K:C
|:G|A>cAG G>AGF|F>GFD G/2F/2E/2D/2 CG|
|:A|d/2d/2d d>f "tr"e2 c>e|f2 "tr"ed g/2f/2e/2d/2 ce|
d/2d/2d d>f e2 Ae|fd g/2f/2e/2d/2 c>AA:|
|:g|aa _b/2a/2g/2f/2 gg a/2g/2f/2e/2|ff g/2f/2e/2d/2 eccg|
aa _b/2a/2g/2f/2 gg a/2g/2f/2e/2|fe g/2f/2e/2d/2 cAA:||

